icon/gr/chat-option.svg

<svg xmlns="http://www.w3.org/2000/svg" width="24" height="24"><path fill="none" stroke="#000" stroke-width="2" d="M9 7V1h14v10h-3v5l-5-4M1 7h14v11H9l-5 4v-4H1V7Z"/></svg>

<svg xmlns="http://www.w3.org/2000/svg" viewBox="0 0 24 24" height="1em" width="1em">
  <path fill="none" stroke="#000" stroke-width="2" d="M9,7 L9,1 L23,1 L23,11 L20,11 L20,16 L15,12 M1,7 L15,7 L15,18 L9,18 L4,22 L4,18 L1,18 L1,7 Z"/>
</svg>
